X:1
T:Title
%%score { ( 1 3 ) | 2 }
L:1/8
Q:1/4=100
M:6/8
K:Bb
V:1 treble nm="Grand Piano"
V:3 treble 
V:2 bass 
V:1
 [DF][_D=E][=DF] [DB]2 [DF] | [EG]3 .[DF]3 | G^FG =F2 d | c6 | [Fd][=E_d][F=d] Bc[_Ad] | %5
w: B.~M.~McDowell * * * *|||||
 [Ge]3 .[Fd]3 | c=Bc d2 c | [DB]6 | [Fd]2 [Fd]/[Fd]/ c2 c | B3 .B3 | G2 G/G/ F2 d | %11
w: ||||||
[M:5/8] c-c- c3 |[M:1/8] F |[M:3/4] F2 c B2 F |[M:7/8] A3 G3 z |[M:3/4] F=E F G2 F | [DB]6 |] %17
w: ||||||
V:2
 [B,,B,][B,,B,][B,,B,] [B,,B,]2 [B,,B,] | [B,,B,]3 .[B,,B,]3 | %2
 [E,B,E][E,B,E][E,B,E] [F,B,D]2 [F,B,F] | [F,A,F]6 | [B,,B,][B,,B,][B,,B,] [D,B,][C,A,][B,,B,] | %5
 [B,,B,]3 .[B,,B,]3 | [F,A,F][F,_A,F][F,=A,F] [F,B,F]2 [F,A,E] | [B,,B,]6 | %8
 [B,,B,]2 [B,,B,]/[B,,B,]/ [F,A,F]2 [^F,A,E] | [G,B,D]3 .[G,B,D]3 | %10
 [E,B,E]2 [E,B,E]/[E,B,E]/ [F,B,D]2[K:treble] [G,B,F] |[M:5/8] [F,A,F]-[F,A,F]- [F,A,F]3 | %12
[M:1/8][K:bass] [F,A,E] |[M:3/4] [F,B,D]2 [F,A,E] [G,B,D]2 [D,B,] |[M:7/8] [E,B,F]3 [E,B,E]3 z | %15
[M:3/4] [F,B,D][F,B,_D] [F,B,=D] [F,A,E]2 [F,A,E] | [B,,B,]6 |] %17
V:3
 x6 | x6 | x6 | x6 | z3 .F3 | x6 | x6 | x6 | x6 | x6 | x6 |[M:5/8] x5 |[M:1/8] x |[M:3/4] x6 | %14
[M:7/8] x7 |[M:3/4] x6 | x6 |] %17

